X:35
T:Bluesette
C:Words by Norman Gimble, Music by Jean Thieleman
N:Tabledited by Larry Klose
L:1/8
Q:1/4=190
M:3/4
K:G
|: "Moderate Waltz""G"D2 E2 F2 | G2 A2 B2 | "F#m7b5"c4 E2 | "B7b9"^D6 | "Em7"B4 D2 | 
"A7b9"^C6 | "Dm7"A4 C2 | "G7"B,6 | "CM7"G4 B,2 | "C6"C3D ^D=F | "Cm7"G4 ^d2 | 
"F9"d4 c2 | "BbM7"=F4 d2 | c4 ^A2 | "Bbm7"=F4 ^c2 | "Eb9"c4 ^A2 | "AbM7"^D2 =F2 G2 | 
"Ab"^G2 ^A2 c2 | "Am7b5"d4 c2 | "D7b9"B4 A2 | "Bm7"D6 | "Bb7"z6 | "Am7"z6 | "D7"z2 z2 z2 :| "G"G2 A2 B2 | 
d2 z2 z2 | "F#m7b5"c2 B2 A2 | "B7"G4 F2 | "Em7"E2 F2 G2 | "A7"B6 | "Dm7"A2 G2 =F2 | 
"G7"E4 D2 | "CM7"G4 B,2 | "C6"C3B, CD | "Cm7"^D3=F G^A | "F7"A2 ^A2 c2 | "BbM7"=F4 A,2 | 
"Bb6"^A,3C ^C^D | "Bbm7"=F4 ^c2 | "Eb9"c4 ^A2 | "Abm7"^DD =FF GG | ^GG ^AA cc | 
"Am7b5"d4 (3cdc | "D7b9"B4 A2 | "Bm7"D6 | "Bb7"z6 | "Am7"z6 | "D7"z6 | "G"z2 dd dd | 
c2 B4 | "F#m7b5"z2 cc cc | "B7"B2 A4 | "Em7"z2 BB BB | "A7"A2 G4 | "Dm7"z2 AA AA | 
"G7"G2 =F4 | "CM7"E2 =F2 ^F2 | "C6"G2 A2 B2 | "Cm7"c2 ^c2 d2 | "F7"^d2 =d2 c2 | 
"BbM7"=F2 G2 A2 | "Bb6"^A2 B2 c2 | "Bb7"^c2 d2 ^d2 | e2 ^d2 ^c2 | "Abm7"c2 z^A z2 | 
^G2 z^A zc | "Am7b5"d2 zc zB | "D7"^G2 z2 FE | "Bm7"D2 D2 D2 | "Bb7"=F2 D3C | 
"Am7"D6 | "D7"z4 z2 | "G"D2 E2 F2 | G2 A2 B2 | "F#m7b5"c4 E2 | "B7b9"^D6 | "Em7"B4 D2 | 
"A7b9"^C6 | "Dm7"A4 C2 | "G7"B,6 | "CM7"G4 B,2 | "C6"C3D ^D=F | "Cm7"G4 ^d2 | 
"F9"d4 c2 | "BbM7"=F4 d2 | c4 ^A2 | "Bbm7"=F4 ^c2 | "Eb9"c4 ^A2 | "Abm7"^D2 =F2 G2 | 
^G2 ^A2 c2 | "Am7b5"d4 c2 | "D9"B4 A2 | "Bm7"e6 | z6 | "E7"z4 d2 | "E7#5"c4 "E7"B2 | 
"Am7"d6 | z6 | "D7"z4 c2 | B2 G3E | "G"G6 | "D7b9"z6 | "Bm7"z6 | "GM7"z2 z2 z2 | 


